;FLAVOR:UltiGCode
;TIME:17507
;MATERIAL:40246
;MATERIAL2:0
;NOZZLE_DIAMETER:0.4

;Generated with Cura_SteamEngine 2.1.3
;LAYER_COUNT:76
;LAYER:0
M107
G10
G0 F7200.000000 X100.303 Y101.421 Z0.300
;TYPE:SKIRT
G11
G1 F1800.000 X99.741 Y101.988 E0.09580
G1 X99.183 Y102.619 E0.19688
G1 X98.683 Y103.258 E0.29424
G1 X98.208 Y103.943 E0.39427
G1 X97.774 Y104.654 E0.49423
G1 X97.376 Y105.399 E0.59559
G1 X97.040 Y106.128 E0.69191
G1 X96.730 Y106.917 E0.79364
G1 X96.472 Y107.715 E0.89428
G1 X96.262 Y108.512 E0.99319
G1 X96.103 Y109.306 E1.09036
G1 X95.982 Y110.169 E1.19493
G1 X95.916 Y110.978 E1.29233
G1 X95.896 Y111.818 E1.39316
G1 X95.924 Y112.633 E1.49102
G1 X96.001 Y113.467 E1.59152
G1 X96.123 Y114.266 E1.68852
G1 X96.296 Y115.085 E1.78896
G1 X96.520 Y115.901 E1.89051
G1 X96.786 Y116.685 E1.98985
G1 X97.092 Y117.443 E2.08795
G1 X97.458 Y118.214 E2.19036
G1 X97.847 Y118.923 E2.28741
G1 X98.297 Y119.642 E2.38919
G1 X98.755 Y120.290 E2.48441
G1 X99.301 Y120.970 E2.58906
G1 X99.851 Y121.581 E2.68771
G1 X100.411 Y122.135 E2.78224
G1 X101.055 Y122.699 E2.88497
G1 X101.720 Y123.218 E2.98619
G1 X102.407 Y123.691 E3.08628
G1 X103.089 Y124.107 E3.18215
G1 X103.826 Y124.499 E3.28232
G1 X104.589 Y124.849 E3.38305
G1 X105.346 Y125.144 E3.48055
G1 X106.157 Y125.406 E3.58282
G1 X106.972 Y125.618 E3.68387
G1 X107.741 Y125.773 E3.77801
G1 X108.608 Y125.893 E3.88304
G1 X109.420 Y125.958 E3.98079
G1 X110.468 Y125.983 E4.10659
G1 X111.255 Y126.042 E4.20129
G1 X112.033 Y126.180 E4.29611
G1 X112.533 Y126.322 E4.35848
G1 X112.533 Y97.062 E7.86968
G1 X112.037 Y97.219 E7.93211
G1 X111.263 Y97.379 E8.02696
G1 X110.324 Y97.467 E8.14013
G1 X109.261 Y97.502 E8.26776
G1 X108.437 Y97.577 E8.36705
G1 X107.616 Y97.700 E8.46667
G1 X106.812 Y97.869 E8.56526
G1 X105.994 Y98.092 E8.66700
G1 X105.226 Y98.351 E8.76426
G1 X104.446 Y98.664 E8.86511
G1 X103.704 Y99.014 E8.96356
G1 X102.968 Y99.414 E9.06408
G1 X102.271 Y99.848 E9.16261
G1 X101.573 Y100.343 E9.26530
G1 X100.950 Y100.839 E9.36086
G1 X100.303 Y101.421 E9.46529
G0 F7200.00000 X100.034 Y101.124
G1 F1800.000 X99.448 Y101.715 E9.56516
G1 X98.875 Y102.363 E9.66896
G1 X98.361 Y103.020 E9.76906
G1 X97.867 Y103.732 E9.87305
G1 X97.434 Y104.442 E9.97285
G1 X97.018 Y105.221 E10.07882
G1 X96.668 Y105.980 E10.17912
G1 X96.360 Y106.765 E10.28031
G1 X96.084 Y107.616 E10.38767
G1 X95.874 Y108.413 E10.48657
G1 X95.703 Y109.269 E10.59132
G1 X95.587 Y110.099 E10.69189
G1 X95.516 Y110.970 E10.79675
G1 X95.496 Y111.822 E10.89902
G1 X95.524 Y112.650 E10.99844
G1 X95.604 Y113.512 E11.10232
G1 X95.730 Y114.341 E11.20295
G1 X95.907 Y115.177 E11.30549
G1 X96.137 Y116.014 E11.40965
G1 X96.412 Y116.827 E11.51264
G1 X96.737 Y117.628 E11.61637
G1 X97.089 Y118.372 E11.71514
G1 X97.507 Y119.135 E11.81954
G1 X97.961 Y119.860 E11.92219
G1 X98.439 Y120.534 E12.02135
G1 X98.991 Y121.223 E12.12729
G1 X99.564 Y121.859 E12.23001
G1 X100.141 Y122.429 E12.32734
G1 X100.810 Y123.016 E12.43414
G1 X101.484 Y123.542 E12.53674
G1 X102.172 Y124.016 E12.63700
G1 X102.899 Y124.459 E12.73916
G1 X103.637 Y124.852 E12.83949
G1 X104.456 Y125.227 E12.94758
G1 X105.209 Y125.520 E13.04454
G1 X106.035 Y125.787 E13.14871
G1 X106.885 Y126.009 E13.25413
G1 X107.689 Y126.170 E13.35253
G1 X108.539 Y126.288 E13.45551
G1 X109.415 Y126.358 E13.56096
G1 X110.458 Y126.383 E13.68616
G1 X111.225 Y126.441 E13.77846
G1 X111.982 Y126.579 E13.87080
G1 X112.720 Y126.795 E13.96307
G1 X112.933 Y126.882 E13.99068
G1 X112.933 Y96.486 E17.63820
G1 X112.424 Y96.686 E17.70383
G1 X111.683 Y96.893 E17.79615
G1 X110.925 Y97.021 E17.88840
G1 X110.311 Y97.067 E17.96229
G1 X109.247 Y97.102 E18.09004
G1 X108.394 Y97.179 E18.19281
G1 X107.543 Y97.307 E18.29608
G1 X106.721 Y97.480 E18.39688
G1 X105.871 Y97.712 E18.50261
G1 X105.086 Y97.976 E18.60200
G1 X104.284 Y98.298 E18.70571
G1 X103.528 Y98.654 E18.80598
G1 X102.771 Y99.067 E18.90946
G1 X102.046 Y99.517 E19.01186
G1 X101.327 Y100.027 E19.11764
G1 X100.680 Y100.543 E19.21695
G1 X100.034 Y101.124 E19.32121
G0 F7200.00000 X99.747 Y100.845
G1 F1800.000 X99.155 Y101.442 E19.42210
G1 X98.574 Y102.100 E19.52743
G1 X98.032 Y102.791 E19.63282
G1 X97.540 Y103.502 E19.73657
G1 X97.078 Y104.258 E19.84289
G1 X96.666 Y105.030 E19.94790
G1 X96.300 Y105.824 E20.05282
G1 X95.979 Y106.642 E20.15826
G1 X95.701 Y107.501 E20.26661
G1 X95.486 Y108.315 E20.36764
G1 X95.308 Y109.207 E20.47679
G1 X95.188 Y110.063 E20.58051
G1 X95.116 Y110.946 E20.68682
G1 X95.096 Y111.826 E20.79245
G1 X95.124 Y112.667 E20.89343
G1 X95.209 Y113.575 E21.00286
G1 X95.337 Y114.415 E21.10483
G1 X95.516 Y115.265 E21.20906
G1 X95.754 Y116.132 E21.31695
G1 X96.036 Y116.964 E21.42237
G1 X96.365 Y117.777 E21.52762
G1 X96.738 Y118.563 E21.63202
G1 X97.160 Y119.334 E21.73749
G1 X97.633 Y120.089 E21.84440
G1 X98.120 Y120.776 E21.94545
G1 X98.682 Y121.477 E22.05327
G1 X99.268 Y122.129 E22.15847
G1 X99.878 Y122.732 E22.26140
G1 X100.546 Y123.317 E22.36795
G1 X101.241 Y123.859 E22.47371
G1 X101.972 Y124.362 E22.58019
G1 X102.695 Y124.804 E22.68188
G1 X103.468 Y125.215 E22.78694
G1 X104.280 Y125.587 E22.89412
G1 X105.077 Y125.898 E22.99678
G1 X105.932 Y126.174 E23.10459
G1 X106.794 Y126.398 E23.21147
G1 X107.621 Y126.564 E23.31269
G1 X108.503 Y126.687 E23.41955
G1 X109.391 Y126.758 E23.52645
G1 X110.448 Y126.783 E23.65333
G1 X111.194 Y126.841 E23.74312
G1 X111.930 Y126.978 E23.83296
G1 X112.646 Y127.193 E23.92267
G1 X113.333 Y127.482 E24.01210
G1 X113.333 Y95.857 E27.80710
G1 X112.767 Y96.130 E27.88251
G1 X112.062 Y96.381 E27.97231
G1 X111.335 Y96.556 E28.06204
G1 X110.298 Y96.667 E28.18720
G1 X109.215 Y96.702 E28.31722
G1 X108.347 Y96.781 E28.42181
G1 X107.489 Y96.910 E28.52593
G1 X106.619 Y97.093 E28.63262
G1 X105.755 Y97.329 E28.74009
G1 X104.936 Y97.604 E28.84377
G1 X104.130 Y97.928 E28.94801
G1 X103.345 Y98.298 E29.05215
G1 X102.566 Y98.722 E29.15858
G1 X101.821 Y99.186 E29.26390
G1 X101.100 Y99.697 E29.36994
G1 X100.429 Y100.231 E29.47285
G1 X99.747 Y100.845 E29.58297
G0 F7200.00000 X99.478 Y100.548
G1 F1800.000 X98.870 Y101.161 E29.68658
G1 X98.268 Y101.842 E29.79565
G1 X97.711 Y102.553 E29.90403
G1 X97.197 Y103.295 E30.01235
G1 X96.733 Y104.055 E30.11920
G1 X96.307 Y104.853 E30.22776
G1 X95.925 Y105.681 E30.33718
G1 X95.609 Y106.488 E30.44118
G1 X95.314 Y107.397 E30.55586
G1 X95.098 Y108.216 E30.65750
G1 X94.913 Y109.145 E30.77117
G1 X94.789 Y110.026 E30.87793
G1 X94.717 Y110.921 E30.98568
G1 X94.695 Y111.830 E31.09479
G1 X94.725 Y112.700 E31.19925
G1 X94.809 Y113.606 E31.30844
G1 X94.943 Y114.484 E31.41502
G1 X95.130 Y115.372 E31.52392
G1 X95.370 Y116.245 E31.63256
G1 X95.662 Y117.106 E31.74166
G1 X95.994 Y117.927 E31.84793
G1 X96.387 Y118.755 E31.95792
G1 X96.820 Y119.545 E32.06602
G1 X97.289 Y120.295 E32.17217
G1 X97.803 Y121.020 E32.27882
G1 X98.380 Y121.740 E32.38954
G1 X98.981 Y122.407 E32.49728
G1 X99.607 Y123.026 E32.60292
G1 X100.292 Y123.626 E32.71219
G1 X100.994 Y124.174 E32.81906
G1 X101.751 Y124.696 E32.92941
G1 X102.503 Y125.155 E33.03513
G1 X103.286 Y125.571 E33.14153
G1 X104.132 Y125.959 E33.25321
G1 X104.939 Y126.274 E33.35717
G1 X105.813 Y126.556 E33.46737
G1 X106.703 Y126.788 E33.57774
G1 X107.555 Y126.959 E33.68202
G1 X108.466 Y127.086 E33.79240
G1 X109.367 Y127.157 E33.90085
G1 X110.439 Y127.183 E34.02953
G1 X111.163 Y127.240 E34.11668
G1 X111.876 Y127.377 E34.20381
G1 X112.570 Y127.591 E34.29095
G1 X113.237 Y127.880 E34.37819
G1 X113.733 Y128.163 E34.44671
G1 X113.733 Y95.157 E38.40743
G1 X113.690 Y95.189 E38.41386
G1 X113.062 Y95.553 E38.50097
G1 X112.397 Y95.847 E38.58822
G1 X111.704 Y96.065 E38.67540
G1 X110.992 Y96.206 E38.76250
G1 X110.285 Y96.267 E38.84765
G1 X109.200 Y96.302 E38.97792
G1 X108.304 Y96.384 E39.08589
G1 X107.399 Y96.520 E39.19571
G1 X106.532 Y96.702 E39.30201
G1 X105.622 Y96.950 E39.41520
G1 X104.816 Y97.222 E39.51728
G1 X103.968 Y97.563 E39.62696
G1 X103.162 Y97.942 E39.73383
G1 X102.364 Y98.377 E39.84290
G1 X101.608 Y98.847 E39.94972
G1 X100.845 Y99.388 E40.06196
G1 X100.168 Y99.927 E40.16580
G1 X99.478 Y100.548 E40.27720
G0 F7200.00000 X99.200 Y100.261
G1 F1800.000 X98.569 Y100.897 E40.38471
G1 X97.960 Y101.586 E40.49506
G1 X97.389 Y102.316 E40.60627
G1 X96.864 Y103.072 E40.71672
G1 X96.386 Y103.856 E40.82691
G1 X95.952 Y104.669 E40.93750
G1 X95.557 Y105.525 E41.05063
G1 X95.228 Y106.365 E41.15888
G1 X94.936 Y107.265 E41.27243
G1 X94.702 Y108.151 E41.38239
G1 X94.521 Y109.060 E41.49361
G1 X94.393 Y109.973 E41.60425
G1 X94.317 Y110.914 E41.71753
G1 X94.295 Y111.817 E41.82593
G1 X94.326 Y112.734 E41.93603
G1 X94.413 Y113.668 E42.04859
G1 X94.549 Y114.558 E42.15663
G1 X94.736 Y115.444 E42.26530
G1 X94.991 Y116.374 E42.38101
G1 X95.282 Y117.232 E42.48973
G1 X95.638 Y118.112 E42.60365
G1 X96.028 Y118.934 E42.71283
G1 X96.472 Y119.745 E42.82378
G1 X96.953 Y120.513 E42.93252
G1 X97.478 Y121.254 E43.04150
G1 X98.078 Y122.003 E43.15666
G1 X98.693 Y122.685 E43.26686
G1 X99.328 Y123.314 E43.37412
G1 X100.036 Y123.934 E43.48705
G1 X100.769 Y124.506 E43.59862
G1 X101.536 Y125.034 E43.71036
G1 X102.299 Y125.500 E43.81765
G1 X103.117 Y125.934 E43.92877
G1 X103.971 Y126.325 E44.04148
G1 X104.793 Y126.646 E44.14737
G1 X105.726 Y126.948 E44.26505
G1 X106.592 Y127.173 E44.37242
G1 X107.490 Y127.353 E44.48232
G1 X108.429 Y127.484 E44.59610
G1 X109.345 Y127.557 E44.70636
G1 X110.429 Y127.583 E44.83648
G1 X111.131 Y127.640 E44.92100
G1 X111.822 Y127.775 E45.00549
G1 X112.493 Y127.989 E45.09000
G1 X113.135 Y128.277 E45.17444
G1 X113.741 Y128.636 E45.25896
G1 X114.133 Y128.934 E45.31805
G1 X114.133 Y94.340 E49.46933
G1 X113.884 Y94.558 E49.50904
G1 X113.306 Y94.959 E49.59346
G1 X112.685 Y95.292 E49.67802
G1 X112.031 Y95.552 E49.76247
G1 X111.352 Y95.737 E49.84692
G1 X110.656 Y95.843 E49.93141
G1 X110.272 Y95.868 E49.97758
G1 X109.167 Y95.904 E50.11026
G1 X108.242 Y95.988 E50.22171
G1 X107.342 Y96.123 E50.33092
G1 X106.429 Y96.315 E50.44288
G1 X105.515 Y96.565 E50.55659
G1 X104.670 Y96.849 E50.66356
G1 X103.827 Y97.188 E50.77259
G1 X102.973 Y97.590 E50.88586
G1 X102.167 Y98.029 E50.99599
G1 X101.383 Y98.517 E51.10681
G1 X100.610 Y99.065 E51.22052
G1 X99.907 Y99.625 E51.32837
G1 X99.200 Y100.261 E51.44249
G0 F7200.00000 X98.922 Y99.973
G1 F1800.000 X98.276 Y100.624 E51.55254
G1 X97.659 Y101.323 E51.66442
G1 X97.061 Y102.086 E51.78075
G1 X96.537 Y102.841 E51.89104
G1 X96.030 Y103.672 E52.00785
G1 X95.589 Y104.498 E52.12021
G1 X95.197 Y105.348 E52.23254
G1 X94.853 Y106.227 E52.34581
G1 X94.548 Y107.166 E52.46428
G1 X94.314 Y108.053 E52.57436
G1 X94.126 Y108.997 E52.68987
G1 X93.994 Y109.935 E52.80354
G1 X93.917 Y110.890 E52.91851
G1 X93.895 Y111.821 E53.03026
G1 X93.926 Y112.751 E53.14192
G1 X94.016 Y113.714 E53.25799
G1 X94.156 Y114.633 E53.36954
G1 X94.349 Y115.548 E53.48176
G1 X94.609 Y116.492 E53.59925
G1 X94.908 Y117.375 E53.71112
G1 X95.264 Y118.255 E53.82504
G1 X95.677 Y119.125 E53.94060
G1 X96.125 Y119.943 E54.05252
G1 X96.626 Y120.743 E54.16579
G1 X97.155 Y121.491 E54.27573
G1 X97.776 Y122.265 E54.39481
G1 X98.405 Y122.964 E54.50765
G1 X99.048 Y123.599 E54.61610
G1 X99.782 Y124.243 E54.73327
G1 X100.533 Y124.828 E54.84751
G1 X101.322 Y125.372 E54.96251
G1 X102.101 Y125.847 E55.07200
G1 X102.928 Y126.287 E55.18441
G1 X103.823 Y126.697 E55.30254
G1 X104.670 Y127.027 E55.41162
G1 X105.604 Y127.329 E55.52942
G1 X106.522 Y127.568 E55.64325
G1 X107.405 Y127.745 E55.75132
G1 X108.377 Y127.880 E55.86908
G1 X109.339 Y127.957 E55.98489
G1 X110.420 Y127.983 E56.11464
G1 X111.098 Y128.039 E56.19628
G1 X111.766 Y128.174 E56.27806
G1 X112.412 Y128.387 E56.35969
G1 X113.030 Y128.674 E56.44145
G1 X113.609 Y129.031 E56.52308
G1 X114.143 Y129.454 E56.60483
G1 X114.533 Y129.845 E56.67110
G1 X114.533 Y93.368 E61.04834
G1 X114.491 Y93.424 E61.05674
G1 X114.020 Y93.917 E61.13856
G1 X113.496 Y94.351 E61.22020
G1 X112.924 Y94.720 E61.30189
G1 X112.312 Y95.020 E61.38368
G1 X111.670 Y95.246 E61.46535
G1 X111.006 Y95.395 E61.54701
G1 X110.259 Y95.468 E61.63708
G1 X109.135 Y95.505 E61.77203
G1 X108.198 Y95.590 E61.88493
G1 X107.269 Y95.730 E61.99767
G1 X106.343 Y95.924 E62.11121
G1 X105.399 Y96.182 E62.22864
G1 X104.536 Y96.472 E62.33789
G1 X103.658 Y96.825 E62.45145
G1 X102.792 Y97.233 E62.56632
G1 X101.963 Y97.684 E62.67957
G1 X101.169 Y98.178 E62.79179
G1 X100.371 Y98.743 E62.90912
G1 X99.648 Y99.320 E63.02012
G1 X98.922 Y99.973 E63.13730
G0 F7200.00000 X98.645 Y99.684
G1 F1800.000 X97.992 Y100.342 E63.24854
G1 X97.343 Y101.077 E63.36620
G1 X96.748 Y101.837 E63.48203
G1 X96.189 Y102.642 E63.59963
G1 X95.690 Y103.461 E63.71472
G1 X95.231 Y104.321 E63.83170
G1 X94.825 Y105.200 E63.94789
G1 X94.476 Y106.089 E64.06249
G1 X94.166 Y107.045 E64.18309
G1 X93.926 Y107.954 E64.29591
G1 X93.731 Y108.932 E64.41558
G1 X93.597 Y109.888 E64.53142
G1 X93.519 Y110.848 E64.64700
G1 X93.495 Y111.842 E64.76632
G1 X93.526 Y112.769 E64.87762
G1 X93.620 Y113.775 E64.99887
G1 X93.759 Y114.687 E65.10957
G1 X93.963 Y115.655 E65.22828
G1 X94.225 Y116.605 E65.34654
G1 X94.533 Y117.517 E65.46205
G1 X94.902 Y118.426 E65.57977
G1 X95.308 Y119.283 E65.69357
G1 X95.786 Y120.155 E65.81290
G1 X96.298 Y120.973 E65.92870
G1 X96.836 Y121.733 E66.04044
G1 X97.467 Y122.519 E66.16140
G1 X98.110 Y123.234 E66.27679
G1 X98.786 Y123.902 E66.39083
G1 X99.528 Y124.553 E66.50928
G1 X100.297 Y125.152 E66.62625
G1 X101.100 Y125.705 E66.74325
G1 X101.898 Y126.192 E66.85544
G1 X102.752 Y126.647 E66.97156
G1 X103.668 Y127.066 E67.09243
G1 X104.538 Y127.406 E67.20452
G1 X105.485 Y127.712 E67.32394
G1 X106.431 Y127.957 E67.44121
G1 X107.353 Y128.143 E67.55408
G1 X108.324 Y128.278 E67.67172
G1 X109.316 Y128.357 E67.79114
G1 X110.410 Y128.383 E67.92245
G1 X111.065 Y128.438 E68.00133
G1 X111.708 Y128.573 E68.08017
G1 X112.330 Y128.785 E68.15903
G1 X112.921 Y129.070 E68.23776
G1 X113.474 Y129.426 E68.31669
G1 X113.979 Y129.846 E68.39551
G1 X114.429 Y130.324 E68.47428
G1 X114.819 Y130.853 E68.55315
G1 X114.933 Y131.056 E68.58109
G1 X114.933 Y91.997 E73.26817
G1 X114.844 Y92.193 E73.29400
G1 X114.502 Y92.754 E73.37284
G1 X114.095 Y93.270 E73.45171
G1 X113.628 Y93.732 E73.53054
G1 X113.108 Y94.134 E73.60941
G1 X112.544 Y94.470 E73.68819
G1 X111.943 Y94.735 E73.76701
G1 X111.314 Y94.926 E73.84589
G1 X110.667 Y95.038 E73.92469
G1 X110.246 Y95.068 E73.97534
G1 X109.121 Y95.105 E74.11041
G1 X108.152 Y95.193 E74.22717
G1 X107.199 Y95.336 E74.34281
G1 X106.240 Y95.537 E74.46039
G1 X105.287 Y95.798 E74.57896
G1 X104.396 Y96.098 E74.69178
G1 X103.496 Y96.459 E74.80814
G1 X102.614 Y96.875 E74.92516
G1 X101.753 Y97.343 E75.04276
G1 X100.944 Y97.846 E75.15707
G1 X100.127 Y98.425 E75.27724
G1 X99.395 Y99.009 E75.38961
G1 X98.645 Y99.684 E75.51069
G0 F7200.00000 X98.375 Y99.388
G1 F1800.000 X97.699 Y100.070 E75.62592
G1 X97.029 Y100.830 E75.74750
G1 X96.425 Y101.600 E75.86494
G1 X95.862 Y102.412 E75.98351
G1 X95.338 Y103.270 E76.10415
G1 X94.875 Y104.137 E76.22210
G1 X94.457 Y105.044 E76.34194
G1 X94.099 Y105.955 E76.45940
G1 X93.777 Y106.951 E76.58501
G1 X93.535 Y107.867 E76.69870
G1 X93.339 Y108.853 E76.81933
G1 X93.199 Y109.846 E76.93967
G1 X93.119 Y110.841 E77.05946
G1 X93.095 Y111.846 E77.18009
G1 X93.127 Y112.803 E77.29500
G1 X93.221 Y113.806 E77.41588
G1 X93.369 Y114.776 E77.53363
G1 X93.573 Y115.742 E77.65211
G1 X93.838 Y116.708 E77.77231
G1 X94.163 Y117.668 E77.89393
G1 X94.530 Y118.575 E78.01134
G1 X94.957 Y119.474 E78.13077
G1 X95.438 Y120.353 E78.25101
G1 X95.962 Y121.190 E78.36951
G1 X96.519 Y121.977 E78.48521
G1 X97.157 Y122.772 E78.60754
G1 X97.831 Y123.520 E78.72836
G1 X98.507 Y124.189 E78.84249
G1 X99.273 Y124.860 E78.96469
G1 X100.061 Y125.475 E79.08464
G1 X100.878 Y126.038 E79.20370
